X:1
T:I love my love.
T:Gustav T. Holst (1874-1934)
T:To C.K.S. and the ORIANA
T:CORNISH FOLKSONG
T:© CPDL
T:I love my love.
T:© CPDL
T:© CPDL
T:© CPDL
T:© CPDL
T:© CPDL
T:© CPDL
T:© CPDL
C:Gustav T. Holst (1874-1934)
Z:© CPDL
%%score [ ( 1 2 ) ( 3 4 ) 5 6 ]
L:1/8
Q:1/4=80
M:4/4
K:Ab
V:1 treble nm="Soprano" snm="S."
V:2 treble 
V:3 treble nm="Alto" snm="A."
V:4 treble 
V:5 treble-8 transpose=-12 nm="Tenor" snm="T."
V:6 bass nm="Bass" snm="B."
V:1
!p!"^Andante" C2 | F2 (FG) (AG) F2 | c=d e4 cB | A3 F G2 G2 | F6 C2 | F2 (FG) (AG) F2 | %6
w: A-|broad as _ I _ was|walk- * ing, one *|eve- ning in the|spring, I|heard a _ maid * in|
 (c=d) e4!<)!!<(! e2 | f2 (=dc) B2 B2 |!>(! c6!>)! (c=d) | e2 (=dc) f2 f2 | e2 =d2 c2 (cB) | %11
w: Bed- * lam so|sweet- ly _ for to|sing; Her *|chains she * rat- tled|with her hands, and *|
 A2 F2 F2 F2 | E6 C2 | F3 G!<(! A3 B | (c=d) e2!<)! !fermata!f2 (cB) |!>(! A4!>)! G4 | F6!mf! C2 | %17
w: thus re- pli- ed|she: "I|love my love be-|cause * I know my *|love loves|me! 2.O|
 F2 (FG) (AG) F2 | (c=d) e4 (cB) | A3 F G2 G2 | F6 C2 | F2 (FG) (AG) F2 | (c=d e4)!<)!!<(! e2 | %23
w: cru- el _ were * his|par- * ents who *|sent my love to|sea, And|cru- el _ was * the|ship _ _ that|
 f2 (=dc) B2 B2 |!>(! c6!>)! c=d | e2 (=dc) f2 f2 | e2 =d2 c2 (cB) | A2 F2 F2 F2 | E6 C2 | %29
w: bore my * love from|me; Yet I|love his * par- ents|since they're his al- *|though they've ruin- ed|me: I|
 F3 G!<(! A3 B | (c=d) e2!<)! !fermata!f2 (cB) |!>(! A4 G4 | F6!>)! z!pp! (c | %33
w: love my love be-|* cause I know my *|love loves|me!" I|
"^sotto voce" [ce]2 [Ac]2 E3) z | z (c [ce]2 [Ac]2 E2 | [ce]2 [Ac]2 E3) z | z (c [ce]2 [Ac]2 E2 | %37
w: love my love,|I love my love,|love my love,|I love my love,|
 [ce]2 [Ac]2 E3) z | z (c [ce]2 [Ac]2 [GB]2 | [ce]2 [Ac]2 E3) z | z2 [ce]2 [Ac]2 [ce]2 | [B=d]8 | %42
w: love my love,|I love my love,|love my love,|I love my|love|
 z2 G2 A2 B2 | [Ac]8- | [Ac]8 | z2 [ce]2 [Ac]2 A2 | B2 [eg]2 [Be]2 [GB]2 | A6 CC | %48
w: be- cause I|know,|_|be- cause I|know my love loves|me. For I|
 F3 G!<(! A3 B!<)! | (c2 =d2) e4 |"^Animato" f6!>(! (cB) | A4 G4 | C8-!>)! | %53
w: love my love be-|cause _ I|know my *|love loves|me.|
 C3 z"^accel.e cresc" z4 | z8 | z8 | z8 | z4 z2!f! (c=d) | e2 (=dc) f2 f2 | %59
w: _||||He _|flew in * to her|
 e2 =d2 c2"^cresc." (cB) | A2 [Ac]2 [ce]2 [cf]2 | [ea]6!ff! [eg]2 |"^Con passione." [cf]3 e c3 B | %63
w: snow- white arms, and *|thus re- pli- ed|he: "I|love my love, be-|
 c=d e2 f2 ([ea][dg]) |"^Vivace"[Q:1/4=120] [cf]4 [Be]4 | =d4 c4 | B4 A4 | F4 E4 |"^dim." C8- | %69
w: cause * I know my *|love loves|me; I|know my|love loves|me,|
 C4 z4 | z8 | z4!pp!"^Tempo I." C4 | F2"^parlante" z G (AG) F2 | c=d e4 (cB) | A3 F G2 G2 | %75
w: _||5.She|said: "My love * don't|fright- en me; are *|you my love or|
 F6"^Animato" z2 | z8 | z8 | z8 | z2!mf! E2 A2 c=d | e2 (=dc) f2 f2 | e2 =d2 c2 (cB) | %82
w: no?"||||"Al- so I _|am re- * turn'd to|make a- mends for *|
 A2 F2 F2 F2 | E6 z2 | z4 z2 C2 |!<(! F3 G A3 B!<)! | c2"^rall" =d2!>(! e4- | %87
w: all your in- jur-|y;|I|love my love, be-|cause I know|
 e!>)!"^sotto voce""^Tempo I."c [ce]2 [Ac]2 E2 | ([ce]2 [Ac]2) E3 z | z c ([ce]2 [Ac]2 E2 | %90
w: _ my love loves me,|loves _ me,|my love loves me|
 ([ce]2 [Ac]2) E3) z | z (c [ce]2 [Ac]2 [GB]2 | ([ce]2 [Ac]2) E3) z | z2 [ce]2 [Ac]2 [ce]2 | %94
w: loves _ me;|my love loves me,|loves _ me,|I love my|
 [B=d]8 | z2 G2 A2 B2 | [A-c]8 | [Ac]8 | z2 [ce]2 [Ac]2 A2 | B2 [eg]2 [Be]2 [GB]2 | A8- | A3 z z4 | %102
w: love|be- cause I|know|_|be- cause I|know my love loves|me|_|
 z!<(! C=DE FGA!<)!B | [ce]2 [Ac]2 F3 z | f8 |!>(! c8!>)! | z8 || %107
w: I love my love be- cause I|know my love||me?'||
V:2
 x2 | x8 | x8 | x8 | x8 | x8 | x8 | x8 | x8 | x8 | x8 | x8 | x8 | x8 | x8 | x8 | x8 | x8 | x8 | %19
w: |||||||||||||||||||
 x8 | x8 | x8 | x8 | x8 | x8 | x8 | x8 | x8 | x8 | x8 | x8 | x8 | x8 | x8 | x8 | x8 | x8 | x8 | %38
w: |||||||||||||||||||
 x8 | x8 | x8 | x8 | x8 | x8 | x8 | x8 | x8 | x8 | x8 | x8 | x8 | x8 | x8 | x8 | x8 | x8 | x8 | %57
w: |||||||||||||||||||
 x8 | x8 | x8 | x8 | x8 | x8 | x8 | x8 | x8 | x8 | x8 | x8 | x8 | x8 | x8 | x8 | x8 | x8 | x8 | %76
w: |||||||||||||||||||
 x8 | x8 | x8 | x8 | x8 | x8 | x8 | x8 | x8 | x8 | x8 | x8 | x8 | x8 | x8 | x8 | x8 | x8 | x8 | %95
w: |||||||||||||||||||
 x8 | x8 | x8 | x8 | x8 | x8 | x8 | x8 | x8 | (=dc!>)!!>(! B6) | x8 | x8 || %107
w: |||||||||loves * *|||
V:3
!p! C2 | C2 F2 F2 C2 | (G2 E2) F2 G2 | F3 F E2 E2 | F6 C2 | C2 F2 F2 C2 | C2 c2!<(! (B2!<)! A2) | %7
w: A-|broad as I was|walk- * * ing,one|eve- ning in the|spring, I|heard a maid in|Bed- lam so _|
 F3 F B2 B2 |!>(! A6!>)! A2 | G2 G2 A2 F2 | G2 E2 F2 G2 | E2 C2 B,2 B,2 | G,6 z2 | (=D4 E4) | %14
w: sweet- ly for to|sing; Her|chains she rat- tled|with her hands, and|thus re- pli- ed|she:|(closed *|
 (G4 !fermata![Ac]4) | (E4 =D4 | C6)!mf! C2 | C2 F2 F2 C2 | (G2 E2) F2 G2 | F3 F E2 E2 | F6 C2 | %21
w: ||* 2.O|cru- el were his|par- * ents who|sent my love to|sea, And|
 C2 F2 F2 C2 | (C2 .c2)!<(! (B2!<)! A2) | F3 F B2 B2 |!>(! A6 A!>)!A | G2 G2 A2 F2 | G2 E2 F2 G2 | %27
w: cru- el was *|ship _ that *|bore my love from|me; Yet I|love his par- ents|since they're his al-|
 E2 C2 B,2 B,2 | G,6 z2 | (=D4 E4 | G4) !fermata![Ac]4 |!>(! E4 =D4 | C6!>)! z!pp! (c | %33
w: though they've ruin- ed|me:|(closed *|||* I|
 (AG) F2 C3) z | z c (AG) F2 C2 | (AG) F2 C3 z | z (c (AG) F2 C2 | (AG) F2 C3) z | z (c AG F2 E2 | %39
w: love * my love,|I love * my love,|love * my love,|I love * my love,|love * my love,|I love * my love,|
 (AG) F2 C3) z | z2 (AG) F2 A2 | F8 | z2 E2 F2 G2 | F8- | F8 | z2 (AG) F2 F2 | G2 (BA) G2 E2 | %47
w: love * my love,|I * love my|love|be- cause I|know,|_|be- * cause I|know my * love loves|
 F6 CC | F3 G!<(! A3 G!<)! | A4 B4 | A6!>(! (AG) | F4 C4 | A,8-!>)! | A,3 z z4 | z8 | z8 | z8 | %57
w: me. For I|love my love be-|cause I|know my *|love loves|me.|_||||
 z4!f! (EF) G2- | G2 G2 c2 c2 | c2 A2 c2"^cresc." (GF) | E2 E2 A2 A2 | c6!ff! B2 | A3 B c3 F | %63
w: He _ flew|_ in- to her|snow- white arms, and *|thus re- pli- ed|he: "I|love my love, be-|
 B2 B2 B2 (cB) | A4 G4 | F4 E4 | F4 E4 | C4 A,4 |"^dim." A,8- | A,4 E4- |!>(! E8-!>)! | %71
w: cause I know my *|love loves|me; I|know my|love loves|me,|_ loves|_|
 E4!pp! C4- | C8- | C8- | C8- | C z z2 z4 | z8 | z8 | z8 | z2!mf! E2 A2 A2 | A2 A2 A2 A2 | %81
w: * me"|_|||||||Al- so I|am re- turn'd to|
 G2 G2 A2 B,2 | (E2 F2) (E2 =D2) | =D3 C C2 z2 | z4 z2 C2 | F2 E2 =D3 G | A2 F2!>(! G4- | %87
w: make a- mends for|all _ your *|in- jur- y;|I|love my love, be-|cause I know|
 G!>)!"^sotto voce"c (AG) F2 C2 | (AG) F2 C3 z | z (c (AG) F2 C2 | (AG) F2 C3) z | %91
w: _ my love * loves me,|loves _ _ me,|my love * loves me,|loves _ _ me;|
 z (c (AG) F2 E2 | (AG F2) C3) z | z2 (AG) F2 A2 | F8 | z2 E2 F2 G2 | F8- | F8 | z2 (AG) F2 F2 | %99
w: my love * loves me,|loves _ _ me,|I * love my|love|be- cause I|know|_|be- * cause I|
 G2 (BA) G2 E2 |!<(! F8- | F3!<)! z z4 | z!<(! CB,C B,EF!<)!G | (AG) F2 C3 z | (BF!>)!!>(! =D6) | %105
w: know my _ love loves|me|_|I love my love be- cause I|know * my love|loves _ _|
!>(! A8!>)! | z8 || %107
w: me?'||
V:4
 x2 | x8 | x8 | x8 | x8 | x8 | x8 | x8 | x8 | x8 | x8 | x8 | x8 | x8 | x8 | x8 | x8 | x8 | x8 | %19
w: |||||||||||||||||||
 x8 | x8 | x6 C2 | x8 | x8 | x8 | x8 | x8 | x8 | x8 | x8 | x8 | x8 | x8 | x8 | x8 | x8 | x8 | x8 | %38
w: ||the|||||||||||||||||
 x8 | x8 | x8 | x8 | x8 | x8 | x8 | x8 | x8 | x8 | x8 | x8 | x8 | x8 | x8 | x8 | x8 | x8 | x8 | %57
w: |||||||||||||||||||
 x8 | x8 | x8 | x8 | x8 | x8 | x8 | x8 | x8 | x8 | x8 | x8 | x8 | x8 | x8 | x8 | x8 | x8 | x8 | %76
w: |||||||||||||||||||
 x8 | x8 | x8 | x8 | x8 | x8 | x8 | x8 | x8 | x8 | x8 | x8 | x8 | x8 | x8 | x8 | x8 | x8 | x8 | %95
w: |||||||||||||||||||
 x8 | x8 | x8 | x8 | x8 | x8 | x8 | x8 | x8 | x8 | x8 | x8 || %107
w: ||||||||||||
V:5
!p! c2 | c2 c2 (cB) A2 | G2 c4 c2 | c3 c c2 B2 | A6 c2 | c2 B2 (cB) A2 | G2 g2!<(! (f2!<)! e2) | %7
w: A-|broad as I _ was|walk- ing, one|eve- ning in the|spring, I|heard a maid * in|Bed- lam so _|
 =d3 e f2 d2 |!>(! f6!>)! c2 | c2 c2 c2 c2 | c2 G2 c2 c2 | c2 e2 e2 =d2 | (=d4 c2) z2 | %13
w: sweet- ly for to|sing; Her|chains she rat- tled|with her hands, and|thus re- pli- ed|she: _|
!<(! (B4 c4 | e4!<)! !fermata!=d4) |!>(! (c4!>)! B4 | A6)!mf! c2 | c2 c2 (cB) A2 | G2 c4 c2 | %19
w: (closed *|||* 2.O|cru- el were * his|par- ents who|
 c3 c c2 B2 | A6 c2 | c2 B2 (cB) A2 | (G2 g2)!<(! (f2!<)! e2) | =d3 e f2 d2 |!>(! f6!>)! cc | %25
w: sent my love to|sea, And|cru- el was * the|ship _ that *|bore my love from|me; Yet I|
 c2 c2 c2 c2 | c2 G2 c2 c2 | c2 e2 e2 =d2 | (=d4 c2) z2 |!<(! B4!<(! (c4 | %30
w: love his par- ents|since they're his al-|though they've ruin- ed|me:" _|(closed *|
 e4 !fermata!=d4)!<)!!<)! |!>(! (c4 B4 | A6)!>)! z2 | z8 | z4 z2!p! C2 | %35
w: ||||"With|
"^affettuoso" F2 (FG) (AG) F2 | (c=d) e4 (cB) | A3 F G2 G2 | F6 C2 | F2 (FG) (AG) F2 | %40
w: straw * I'll weave * a|gar- * land, I'll *|weave it ve- ry|fine; With|ro- ses, * lil- * ies,|
 (c=d) e4 e2 | f2 (=dc) B2 B2 | c6 (c=d) | e2 (=dc) f2 f2 | e2 =d2 c2 (cB) | A2 F2 F2 F2 | %46
w: dai- * sies, I'll|mix the * eg- lan-|tine; And *|I'll pre- * sent it|to my love when *|he re- turns from|
 E6!<(! CC | F3 G A3!<)! B | (c=d) e2 f2 (cB) | A4 G4 | F6 z2 | z8 | z8 | z4 z2!mf! C2 | %54
w: sea. For I|love my love, be-|cause * I know my *|love loves|me?'|||Then,|
 F2 FG (AG) F2 | (c=d) e4 e2 | f2 (=dc) B2 B2 | c2!f! (c=d) e4- | e2 e2 a2 a2 | %59
w: hear- ing she was * in|Bed- * lam, he|ran straight * out of|hand; He _ flew|_ in- to her|
 a2 f2 g2"^cresc." (ed) | c2 f2 f2 f2 | e6!ff! c2 | f3 g a3 =d | g2 g2 f2 e2 | =d4 c4 | a4 g4 | %66
w: snow- white arms, and *|thus re- pli- ed|he: "I|love my love, be-|cause I know my|love loves|me; I|
 =d4 c4 | A4 F4 |"^dim." E8- | E4 A4- |!>(! A8-!>)! | A4!pp! A4- | A8- | A8- | A8- | %75
w: know my|love loves|me,|_ loves|_|* me"|_|||
 A z z2 z2!mf! C2 | F2 (FG) (AG) F2 | (c=d) e4 e2 | f2 (=dc) B2 B2 | c6 c2 | c2 c2 c2 =d2 | %81
w: * "O|yes, my * dear- * est|Nan- * cy, I|am your * love, al-|so I|am re- turn'd to|
 e2 E2 F2 G2 | A2 B2 c2 A2 | G6 C2 |!<(! F3 G A3 B | (c=d) e2!<)! f2 (cB) |!>(! A4!>)! G4 | %87
w: make a- mends for|all your in- jur-|y; I|love my love, be-|cause * I know my *|love loves|
 F3 z z2!p! C2 | F2 (FG) (AG) F2 | (c=d) e4 (cB) | A3 F G2 G2 | F6 C2 | F2 (FG) (AG) F2 | %93
w: me?' So|now these * two * are|mar- * ried, and *|hap- py may they|be like|tur- tle * doves * to-|
 (c=d) e4 e2 | f2 (=dc) B2 B2 | c6 (c=d) | e2 (=dc) f2 f2 | e2 =d2 c2 (cB) | A2 F2 F2 F2 | E6 C2 | %100
w: geth- * er, in|love and * u- ni-|ty. All *|pret- ty _ maids with|pa- tience wait that *|have got loves at|sea; I|
 F3 G A3 B | (c=d) e2 !fermata!f2 (cB) | A4 G4 |!>(! F4- F!>)! z z2 | %104
w: love my love be-|cause _ I know my _|love loves|me, _|
 z2 z"^sotto voce" f (=dc) (BF) | c3!<(! c =d2 e2!<)! |!>(! !fermata!f8!>)! || %107
w: I love _ my _|love, my love loves|me.|
V:6
!p! (CB,) | A,3 G, F,2 F,2 | (E,2 C,2) =D,2 E,2 | F,3 A, C2 C,2 | F,6 (CB,) | A,2 G,2 F,2 F,2 | %6
w: A- *|broad as I was|walk- * ing, one|eve- ning in the|spring, I *|heard a maid in|
 E,2 E2!<(! (=D2!<)! C2) | B,3 C =D2 B,2 |!>(! F,6!>)! F,2 | C,2 E,2 F,2 A,2 | C2 C,2 =D,2 E,2 | %11
w: Bed- lam so _|sweet- ly for to|sing; Her|chains she rat- tled|with her hands, and|
 F,2 F,2 B,,2 B,,2 | C,6 z2 |!<(! (B,4 A,4 | G,4!<)! !fermata!F,4) |!>(! (E,8!>)! | F,6)!mf! C2 | %17
w: thus re- pli- ed|she:|(closed *|||* 2.O|
 A,3 G, F,2 F,2 | (E,2 C,2) =D,2 E,2 | F,3 A, C2 C,2 | F,6 (CB,) | A,2 G,2 F,2 F,2 | %22
w: cru- el were his|par- * ents who|sent my love to|sea, And *|cru- el was the|
 (E,2 E2)!<(! (=D2!<)! C2) | B,3 C =D2 B,2 |!>(! F,6!>)! F,F, | C,2 E,2 F,2 A,2 | C2 C,2 =D,2 E,2 | %27
w: ship _ that *|bore my love from|me; Yet I|love his par- ents|since they're his al-|
 F,2 F,2 B,,2 B,,2 | C,6 z2 | (B,4 A,4 | G,4 !fermata!F,4) | (E,8 | F,6) z2 | z8 | z8 | z8 | z8 | %37
w: though they've ruin- ed|me:"|(closed *||||||||
 z8 | z8 | z8 | z8 | z8 | z8 | z8 | z8 | z8 | z8 | z8 | z8 | z4 z2!mf! C,2 | %50
w: ||||||||||||Just|
 F,2 (F,G,) (A,G,) F,2 | (C=D) E4 (CB,) | A,3 F, G,2 G,2 | F,6!mf! C,2 | F,2 F,G, (A,G,) F,2 | %55
w: as she * there * sat|weep- * ing, her *|love he came on|land, Then,|hear- ing she was * in|
 (C=D) E4 C2 | [B,=D]2 (DC) B,2 B,2 | C6!f! (C=D) | E2 (=DC) D2 D2 | E2 E2 E2"^cresc." (CB,) | %60
w: Bed- * lam, he|ran straight * out of|hand; He _|flew in- * to her|snow- white arms, and *|
 A,2 F,2 F,2 F,2 | E,6!ff! C,2 | F,3 G, A,3 B, | (C=D) E2 D2 C2 | B,4 B,4 | B,4 B,4 | A,4 G,4 | %67
w: thus re- pli- ed|he: "I|love my love, be-|cause * I know my|love loves|me; I|know my|
 E,4 C,4 |"^dim." B,,8- | B,,4 [C,F,]4- |!>(! [C,F,]8-!>)! | [C,F,]4!pp! [B,,E,]4- | [B,,E,]8- | %73
w: love loves|me,|_ loves|_|* me"|_|
 [B,,E,]8- | [B,,E,]8- | [B,,E,] z z2 z2!mf! C,2 | F,2 (F,G,) (A,G,) F,2 | (CB,) [A,C]4 [C,A,]2 | %78
w: ||* "O|yes, my * dear- * est|Nan- * cy, I|
 [B,,=D,]2 ([B,,D,][C,E,]) [D,F,]2 [B,,D,]2 | [A,,E,]6 (A,G,) | F,2 E,2 =D,2 C,2 | B,,6 [E,,E,]2 | %82
w: am your * love, al-|so I _|am re- turn'd to|make a-|
 [F,,F,]2 [G,,G,]2 [A,,A,]2 B,,2 | C,2 =D,2 E,2 C,2 |!<(! A,,3 C, F,3 G, | %85
w: mends for all your|in- jur- y; I|love my love, be-|
 (A,B,)!<)! C2 B,2 (A,G,) |!>(! F,4!>)! C,4 | F,,6 z2 | z8 | z8 | z8 | z8 | z8 | z8 | z8 | z8 | %96
w: cause * I know my *|love loves|me?'|||||||||
 z8 | z8 | z8 | z8 | z8 | z8 | z8 |"^sotto voce" z2 z C (A,G,) F,2 | B,,8 | %105
w: |||||||I love * my|love,|
 z!>(! C,=D,E,!>)! F, z z2 | z8 || %107
w: my love loves me.||

